icons/thermometer-line.svg

<svg xmlns="http://www.w3.org/2000/svg" width="24" height="24" fill="none"><g clip-path="url(#a)"><g><path fill="#121212" d="M20.5564 3.44396C22.1184 5.00596 22.1184 7.53796 20.5564 9.10096L12.3564 17.301C11.7144 17.943 10.8724 18.348 9.96941 18.448L6.59141 18.822L4.29341 21.122C3.90341 21.512 3.26941 21.512 2.87941 21.122C2.48941 20.731 2.48941 20.098 2.87941 19.707L5.17741 17.408L5.55241 14.031C5.65241 13.128 6.05741 12.286 6.69941 11.644L14.8994 3.44396C16.4624 1.88196 18.9944 1.88196 20.5564 3.44396ZM16.3144 4.85796L8.11441 13.058C7.79241 13.379 7.59041 13.8 7.54041 14.251L7.26441 16.736L9.74941 16.46C10.1994 16.41 10.6214 16.208 10.9424 15.887L11.3644 15.464L9.95041 14.05L11.3644 12.636L12.7784 14.05L14.1924 12.636L12.7784 11.222L14.1924 9.80796L15.6074 11.222L17.0214 9.80696L15.6074 8.39296L17.0204 6.97996L18.4344 8.39396L19.1414 7.68696C19.9224 6.90696 19.9224 5.63996 19.1414 4.85896C18.3614 4.07796 17.0944 4.07796 16.3134 4.85896L16.3144 4.85796Z"/></g></g><defs><clipPath id="a"><rect width="24" height="24" fill="white"/></clipPath></defs></svg>

<svg width="24" height="24" fill="none" xmlns="http://www.w3.org/2000/svg"><g clip-path="url(#a)"><path d="M20.556 3.444a4 4 0 0 1 0 5.657l-8.2 8.2a3.999 3.999 0 0 1-2.387 1.147l-3.378.374-2.298 2.3a1 1 0 0 1-1.414-1.415l2.298-2.299.375-3.377c.1-.903.505-1.745 1.147-2.387l8.2-8.2a4 4 0 0 1 5.657 0Zm-4.242 1.414-8.2 8.2a1.995 1.995 0 0 0-.574 1.193l-.276 2.485 2.485-.276c.45-.05.872-.252 1.193-.573l.422-.423L9.95 14.05l1.414-1.414 1.414 1.414 1.414-1.414-1.414-1.414 1.414-1.414 1.415 1.414 1.414-1.415-1.414-1.414L17.02 6.98l1.414 1.414.707-.707a2 2 0 1 0-2.828-2.828l.001-.001Z" /></g><defs><clipPath id="a"><path fill="#fff" d="M0 0h24v24H0z"/></clipPath></defs></svg>
